;FLAVOR:Marlin
;TIME:1231
;Filament used: 0.802239m
;Layer height: 0.2
;MINX:15.637
;MINY:52.859
;MINZ:0.2
;MAXX:86.074
;MAXY:78.728
;MAXZ:8
;Generated with Cura_SteamEngine 5.2.1
M140 S60
M105
M190 S60
M104 S205
M105
M109 S205
M82 ;absolute extrusion mode
M201 X500.00 Y500.00 Z100.00 E5000.00 ;Setup machine max acceleration
M203 X500.00 Y500.00 Z10.00 E50.00 ;Setup machine max feedrate
M204 P500.00 R1000.00 T500.00 ;Setup Print/Retract/Travel acceleration
M205 X8.00 Y8.00 Z0.40 E5.00 ;Setup Jerk
M220 S100 ;Reset Feedrate
M221 S100 ;Reset Flowrate

G28 ;Home
G29 ;Auto bed Level

G92 E0 ;Reset Extruder
G1 Z2.0 F3000 ;Move Z Axis up
G1 X10.1 Y20 Z0.28 F5000.0 ;Move to start position
G1 X10.1 Y200.0 Z0.28 F1500.0 E15 ;Draw the first line
G1 X10.4 Y200.0 Z0.28 F5000.0 ;Move to side a little
G1 X10.4 Y20 Z0.28 F1500.0 E30 ;Draw the second line
G92 E0 ;Reset Extruder
G1 Z2.0 F3000 ;Move Z Axis up

G92 E0
G92 E0
G1 F2400 E-5
;LAYER_COUNT:40
;LAYER:0
M107
G0 F6000 X22.749 Y53.582 Z0.2
;TYPE:SKIRT
G1 F2400 E0
G1 F1800 X23.639 Y53.287 E0.03119
G1 X24.551 Y53.069 E0.06237
G1 X25.479 Y52.93 E0.09358
G1 X26.338 Y52.872 E0.12222
G1 X26.967 Y52.859 E0.14314
G1 X73.4 Y52.86 E1.68751
G1 X74.11 Y52.871 E1.71113
G1 X75.047 Y52.926 E1.74235
G1 X76.003 Y53.065 E1.77448
G1 X76.333 Y53.128 E1.78565
G1 X77.246 Y53.343 E1.81685
G1 X78.137 Y53.635 E1.84803
G1 X79 Y54.002 E1.87923
G1 X80.015 Y54.552 E1.91762
G1 X80.322 Y54.74 E1.9296
G1 X81.1 Y55.264 E1.96079
G1 X81.831 Y55.851 E1.99198
G1 X82.538 Y56.53 E2.02458
G1 X82.866 Y56.874 E2.04039
G1 X83.484 Y57.58 E2.0716
G1 X84.039 Y58.336 E2.10279
G1 X84.528 Y59.136 E2.13397
G1 X84.961 Y60.007 E2.16633
G1 X85.129 Y60.386 E2.18011
G1 X85.472 Y61.259 E2.21131
G1 X85.74 Y62.158 E2.24251
G1 X85.93 Y63.076 E2.27369
G1 X86.041 Y64.008 E2.30491
G1 X86.073 Y64.838 E2.33254
G1 X86.074 Y66.721 E2.39516
G1 X86.035 Y67.658 E2.42636
G1 X85.915 Y68.588 E2.45754
G1 X85.717 Y69.505 E2.48875
G1 X85.442 Y70.402 E2.51995
G1 X85.193 Y71.04 E2.54273
G1 X85.034 Y71.413 E2.55622
G1 X84.63 Y72.26 E2.58743
G1 X84.155 Y73.069 E2.61863
G1 X83.613 Y73.834 E2.64981
G1 X83.176 Y74.364 E2.67266
G1 X82.87 Y74.712 E2.68807
G1 X82.221 Y75.389 E2.71927
G1 X81.517 Y76.009 E2.75047
G1 X80.418 Y76.789 E2.79529
G1 X80.09 Y76.993 E2.80814
G1 X79.274 Y77.454 E2.83931
G1 X78.421 Y77.843 E2.87049
G1 X77.537 Y78.159 E2.90172
G1 X76.377 Y78.45 E2.94149
G1 X76.037 Y78.516 E2.95301
G1 X75.11 Y78.656 E2.9842
G1 X74.123 Y78.716 E3.01708
G1 X73.338 Y78.728 E3.0432
G1 X27.187 Y78.728 E4.57818
G1 X26.489 Y78.718 E4.6014
G1 X25.553 Y78.664 E4.63259
G1 X24.625 Y78.532 E4.66376
G1 X23.711 Y78.32 E4.69497
G1 X22.819 Y78.031 E4.72615
G1 X21.954 Y77.668 E4.75736
G1 X21.124 Y77.232 E4.78854
G1 X20.333 Y76.727 E4.81975
G1 X19.589 Y76.156 E4.85094
G1 X18.896 Y75.524 E4.88214
G1 X18.259 Y74.836 E4.91333
G1 X17.684 Y74.095 E4.94452
G1 X17.173 Y73.309 E4.9757
G1 X16.731 Y72.481 E5.00692
G1 X16.362 Y71.619 E5.03811
G1 X16.067 Y70.729 E5.06929
G1 X15.849 Y69.817 E5.10048
G1 X15.709 Y68.889 E5.13169
G1 X15.652 Y68.042 E5.15993
G1 X15.637 Y67.383 E5.18185
G1 X15.637 Y64.465 E5.27891
G1 X15.648 Y63.708 E5.30409
G1 X15.702 Y62.772 E5.33527
G1 X15.835 Y61.843 E5.36648
G1 X16.047 Y60.93 E5.39766
G1 X16.335 Y60.038 E5.42883
G1 X16.699 Y59.173 E5.46005
G1 X17.135 Y58.343 E5.49123
G1 X17.641 Y57.553 E5.52243
G1 X18.211 Y56.808 E5.55363
G1 X18.843 Y56.115 E5.58483
G1 X19.532 Y55.479 E5.61602
G1 X20.273 Y54.903 E5.64723
G1 X21.059 Y54.393 E5.67839
G1 X21.887 Y53.951 E5.70961
G1 X22.749 Y53.582 E5.7408
G0 F6000 X23.113 Y53.875
G1 F1800 X23.993 Y53.606 E5.7714
G1 X24.894 Y53.414 E5.80205
G1 X25.807 Y53.301 E5.83264
G1 X26.349 Y53.272 E5.8507
G1 X26.967 Y53.259 E5.87126
G1 X73.394 Y53.26 E7.41542
G1 X74.104 Y53.271 E7.43904
G1 X75.023 Y53.325 E7.46966
G1 X75.928 Y53.458 E7.50008
G1 X76.258 Y53.521 E7.51126
G1 X77.154 Y53.733 E7.54188
G1 X78.028 Y54.021 E7.57249
G1 X78.874 Y54.385 E7.60312
G1 X79.806 Y54.893 E7.63842
G1 X80.113 Y55.081 E7.6504
G1 X80.876 Y55.596 E7.68102
G1 X81.592 Y56.175 E7.71164
G1 X82.249 Y56.806 E7.74194
G1 X82.577 Y57.15 E7.75775
G1 X83.182 Y57.843 E7.78835
G1 X83.726 Y58.587 E7.819
G1 X84.203 Y59.374 E7.84961
G1 X84.596 Y60.169 E7.87911
G1 X84.764 Y60.548 E7.89289
G1 X85.1 Y61.406 E7.92354
G1 X85.36 Y62.289 E7.95416
G1 X85.543 Y63.191 E7.98477
G1 X85.647 Y64.106 E8.0154
G1 X85.673 Y64.838 E8.03976
G1 X85.674 Y66.721 E8.10239
G1 X85.635 Y67.641 E8.13301
G1 X85.515 Y68.554 E8.16364
G1 X85.317 Y69.453 E8.19426
G1 X85.042 Y70.332 E8.22489
G1 X84.825 Y70.884 E8.24462
G1 X84.666 Y71.257 E8.25811
G1 X84.269 Y72.087 E8.28871
G1 X83.801 Y72.88 E8.31933
G1 X83.266 Y73.629 E8.34995
G1 X82.875 Y74.1 E8.37031
G1 X82.569 Y74.448 E8.38572
G1 X81.932 Y75.112 E8.41632
G1 X81.239 Y75.718 E8.44694
G1 X80.207 Y76.449 E8.48901
G1 X79.879 Y76.653 E8.50185
G1 X79.077 Y77.105 E8.53247
G1 X78.239 Y77.485 E8.56308
G1 X77.371 Y77.792 E8.5937
G1 X76.301 Y78.058 E8.63037
G1 X75.961 Y78.124 E8.64189
G1 X75.05 Y78.26 E8.67253
G1 X74.117 Y78.317 E8.70362
G1 X73.514 Y78.327 E8.72367
G1 X27.345 Y78.329 E10.25926
G1 X26.495 Y78.318 E10.28753
G1 X25.576 Y78.265 E10.31815
G1 X24.665 Y78.132 E10.34877
G1 X23.769 Y77.921 E10.37939
G1 X22.895 Y77.633 E10.41
G1 X22.048 Y77.27 E10.44065
G1 X21.237 Y76.835 E10.47125
G1 X20.467 Y76.331 E10.50186
G1 X19.743 Y75.762 E10.53249
G1 X19.071 Y75.132 E10.56313
G1 X18.456 Y74.447 E10.59375
G1 X17.903 Y73.711 E10.62437
G1 X17.416 Y72.93 E10.65498
G1 X16.999 Y72.109 E10.6856
G1 X16.654 Y71.255 E10.71624
G1 X16.385 Y70.375 E10.74684
G1 X16.193 Y69.474 E10.77749
G1 X16.08 Y68.561 E10.80808
G1 X16.052 Y68.031 E10.82574
G1 X16.037 Y67.383 E10.84729
G1 X16.037 Y64.471 E10.94415
G1 X16.048 Y63.714 E10.96933
G1 X16.101 Y62.795 E10.99995
G1 X16.234 Y61.884 E11.03057
G1 X16.446 Y60.988 E11.06119
G1 X16.734 Y60.114 E11.0918
G1 X17.097 Y59.268 E11.12242
G1 X17.533 Y58.456 E11.15307
G1 X18.037 Y57.686 E11.18368
G1 X18.605 Y56.962 E11.21429
G1 X19.235 Y56.29 E11.24492
G1 X19.921 Y55.676 E11.27554
G1 X20.657 Y55.123 E11.30616
G1 X21.438 Y54.636 E11.33678
G1 X22.259 Y54.219 E11.3674
G1 X23.113 Y53.875 E11.39802
G0 F6000 X23.474 Y54.174
G1 F1800 X24.344 Y53.931 E11.42807
G1 X25.232 Y53.767 E11.4581
G1 X26.36 Y53.672 E11.49575
G1 X26.967 Y53.659 E11.51595
G1 X73.388 Y53.66 E13.05991
G1 X74.098 Y53.671 E13.08353
G1 X75 Y53.725 E13.11359
G1 X75.853 Y53.851 E13.14227
G1 X76.183 Y53.914 E13.15344
G1 X77.061 Y54.122 E13.18345
G1 X77.918 Y54.408 E13.2135
G1 X78.747 Y54.768 E13.24356
G1 X79.597 Y55.234 E13.2758
G1 X79.904 Y55.422 E13.28777
G1 X80.652 Y55.928 E13.31781
G1 X81.353 Y56.497 E13.34784
G1 X81.959 Y57.082 E13.37585
G1 X82.287 Y57.426 E13.39166
G1 X82.881 Y58.107 E13.42172
G1 X83.412 Y58.837 E13.45174
G1 X83.876 Y59.612 E13.48179
G1 X84.23 Y60.332 E13.50847
G1 X84.398 Y60.711 E13.52226
G1 X84.727 Y61.552 E13.5523
G1 X84.98 Y62.418 E13.5823
G1 X85.156 Y63.304 E13.61235
G1 X85.253 Y64.202 E13.64239
G1 X85.273 Y64.839 E13.66359
G1 X85.274 Y66.722 E13.72621
G1 X85.234 Y67.624 E13.75625
G1 X85.115 Y68.519 E13.78627
G1 X84.917 Y69.4 E13.81631
G1 X84.642 Y70.26 E13.84634
G1 X84.457 Y70.727 E13.86305
G1 X84.298 Y71.1 E13.87653
G1 X83.908 Y71.914 E13.90655
G1 X83.446 Y72.691 E13.93662
G1 X82.918 Y73.423 E13.96664
G1 X82.575 Y73.835 E13.98447
G1 X82.269 Y74.183 E13.99988
G1 X81.643 Y74.835 E14.02994
G1 X80.962 Y75.428 E14.05998
G1 X79.996 Y76.109 E14.09929
G1 X79.668 Y76.313 E14.11214
G1 X78.881 Y76.756 E14.14217
G1 X78.057 Y77.127 E14.17223
G1 X77.205 Y77.424 E14.20224
G1 X76.225 Y77.665 E14.23581
G1 X75.885 Y77.731 E14.24733
G1 X74.991 Y77.864 E14.27739
G1 X74.11 Y77.917 E14.30674
G1 X73.507 Y77.927 E14.3268
G1 X27.345 Y77.929 E15.86215
G1 X26.501 Y77.918 E15.89023
G1 X25.599 Y77.865 E15.92028
G1 X24.706 Y77.733 E15.95031
G1 X23.828 Y77.522 E15.98034
G1 X22.972 Y77.234 E16.01038
G1 X22.145 Y76.872 E16.0404
G1 X21.353 Y76.437 E16.07046
G1 X20.602 Y75.935 E16.1005
G1 X19.899 Y75.368 E16.13054
G1 X19.249 Y74.741 E16.16058
G1 X18.657 Y74.059 E16.19062
G1 X18.127 Y73.328 E16.22065
G1 X17.665 Y72.552 E16.25069
G1 X17.272 Y71.739 E16.28072
G1 X16.954 Y70.894 E16.31075
G1 X16.711 Y70.024 E16.34079
G1 X16.546 Y69.136 E16.37083
G1 X16.451 Y68.019 E16.40812
G1 X16.437 Y67.383 E16.42928
G1 X16.437 Y64.477 E16.52593
G1 X16.448 Y63.72 E16.55111
G1 X16.501 Y62.818 E16.58116
G1 X16.634 Y61.925 E16.61119
G1 X16.845 Y61.047 E16.64123
G1 X17.133 Y60.191 E16.67127
G1 X17.495 Y59.364 E16.70129
G1 X17.93 Y58.572 E16.73135
G1 X18.432 Y57.822 E16.76136
G1 X18.999 Y57.119 E16.7914
G1 X19.626 Y56.469 E16.82144
G1 X20.308 Y55.877 E16.85148
G1 X21.04 Y55.347 E16.88154
G1 X21.816 Y54.885 E16.91157
G1 X22.629 Y54.493 E16.94159
G1 X23.474 Y54.174 E16.97163
G1 F2400 E11.97163
;MESH:Pino Trava Porta Renault Kwid.3mf
G0 F6000 X25.972 Y65.35
G0 X27.051 Y65.35
G0 X73.647 Y65.775
G1 F2400 E16.97163
G0 F6000 X73.843 Y66.023
;TYPE:WALL-INNER
G1 F1052.6 X73.884 Y65.847 E16.97849
G1 X73.845 Y65.564 E16.98932
G1 F1050.3 X27.266 Y65.565 E18.75931
G1 F1048 X27.266 Y66.023 E18.77675
G1 F1050.3 X73.843 Y66.023 E20.54666
G0 F6000 X74.152 Y66.332
;TYPE:WALL-OUTER
G1 F1200 X74.24 Y66.206 E20.55177
G1 X74.301 Y65.945 E20.56069
G1 X74.337 Y65.795 E20.56582
G1 X74.239 Y65.382 E20.57994
G1 X74.152 Y65.257 E20.585
G1 X73.891 Y65.136 E20.59457
G1 X26.837 Y65.136 E22.15959
G1 X26.837 Y66.452 E22.20336
G1 X73.892 Y66.451 E23.76842
G1 X74.152 Y66.332 E23.77793
;MESH:NONMESH
G0 F300 X74.152 Y66.332 Z0.4
G0 F6000 X73.847 Y66.308
;TIME_ELAPSED:33.572123
;LAYER:1
M106 S85
;TYPE:WALL-INNER
;MESH:Pino Trava Porta Renault Kwid.3mf
G1 F1350 X73.958 Y66.027 E23.78798
G1 X73.974 Y65.843 E23.79412
G1 X73.955 Y65.548 E23.80395
G1 X73.848 Y65.284 E23.81343
G1 X27.637 Y65.283 E25.35041
G1 X27.637 Y66.307 E25.38447
G1 X73.847 Y66.308 E26.92142
G0 F7500 X74.007 Y66.674
G1 F1350 X74.198 Y66.508 E26.92984
G1 X74.351 Y66.121 E26.94368
G1 X74.372 Y65.878 E26.95179
G1 X74.38 Y65.795 E26.95456
G1 X74.348 Y65.452 E26.96602
G1 X74.195 Y65.075 E26.97955
G1 X74.009 Y64.915 E26.98771
G1 X73.867 Y64.882 E26.99256
G1 X27.237 Y64.883 E28.54348
G1 X27.237 Y66.707 E28.60415
G1 X73.866 Y66.707 E30.15504
G1 X74.007 Y66.674 E30.15985
G0 F7500 X74.193 Y67.041
;TYPE:WALL-OUTER
G1 F1350 X74.468 Y66.804 E30.17193
G1 X74.573 Y66.647 E30.17821
G1 X74.745 Y66.215 E30.19367
G1 X74.771 Y65.914 E30.20372
G1 X74.782 Y65.793 E30.20776
G1 X74.74 Y65.356 E30.22237
G1 X74.571 Y64.936 E30.23742
G1 X74.468 Y64.782 E30.24359
G1 X74.194 Y64.547 E30.25559
G1 X73.912 Y64.482 E30.26522
G1 X26.837 Y64.483 E31.83094
G1 X26.837 Y67.107 E31.91821
G1 X73.912 Y67.107 E33.48393
G1 X74.193 Y67.041 E33.49353
G0 F7500 X73.867 Y66.403
G0 X73.468 Y65.798
;TYPE:WALL-INNER
G1 F873.8 X50.808 Y65.797 E34.65796
G1 F868.2 X28.148 Y65.795 E35.82992
G1 F2400 E30.82992
;MESH:NONMESH
G0 F300 X28.148 Y65.795 Z0.6
G0 F7500 X73.736 Y66.327
;TIME_ELAPSED:50.942188
;LAYER:2
M106 S170
;TYPE:WALL-INNER
;MESH:Pino Trava Porta Renault Kwid.3mf
G1 F2400 E35.82992
G1 F1500 X73.839 Y66.007 E35.84111
G1 X73.838 Y65.582 E35.85524
G1 X73.736 Y65.259 E35.86651
G1 X28.037 Y65.259 E37.38646
G1 X28.037 Y66.329 E37.42205
G1 X73.736 Y66.327 E38.94201
G0 F9000 X73.896 Y66.727
G1 F1500 X74.062 Y66.579 E38.9494
G1 X74.158 Y66.36 E38.95736
G1 X74.235 Y66.072 E38.96727
G1 X74.253 Y65.794 E38.97654
G1 X74.235 Y65.517 E38.98577
G1 X74.158 Y65.225 E38.99581
G1 X74.064 Y65.01 E39.00362
G1 X73.896 Y64.86 E39.01111
G1 X27.637 Y64.859 E40.54969
G1 X27.637 Y66.729 E40.61189
G1 X73.896 Y66.727 E42.15047
G0 F9000 X74.062 Y67.092
G1 F1500 X74.234 Y66.983 E42.15724
G1 X74.402 Y66.8 E42.1655
G1 X74.537 Y66.493 E42.17666
G1 X74.632 Y66.136 E42.18894
G1 X74.654 Y65.793 E42.20037
G1 X74.632 Y65.451 E42.21177
G1 X74.536 Y65.093 E42.2241
G1 X74.404 Y64.789 E42.23512
G1 X74.234 Y64.604 E42.24348
G1 X74.062 Y64.495 E42.25025
G1 X73.877 Y64.46 E42.25652
G1 X27.237 Y64.459 E43.80777
G1 X27.237 Y67.129 E43.89657
G1 X73.882 Y67.127 E45.44799
G1 X74.062 Y67.092 E45.45409
G0 F9000 X74.493 Y67.293
;TYPE:WALL-OUTER
G1 F1500 X74.742 Y67.022 E45.46633
G1 X74.916 Y66.626 E45.48072
G1 X75.029 Y66.201 E45.49534
G1 X75.055 Y65.793 E45.50894
G1 X75.028 Y65.386 E45.52251
G1 X74.915 Y64.961 E45.53713
G1 X74.744 Y64.568 E45.55139
G1 X74.493 Y64.294 E45.56375
G1 X74.212 Y64.117 E45.57479
G1 X73.915 Y64.06 E45.58485
G1 X26.837 Y64.059 E47.15067
G1 X26.837 Y67.529 E47.26609
G1 X73.921 Y67.527 E48.83211
G1 X74.212 Y67.47 E48.84197
G1 X74.493 Y67.293 E48.85301
G0 F9000 X74.04 Y66.756
G0 X73.725 Y66.042
G0 X73.493 Y65.98
;TYPE:SKIN
G1 F1604.3 X73.493 Y65.631 E48.86387
G1 X73.487 Y65.607 E48.86464
G1 X28.384 Y65.606 E50.26726
G1 F1600 X28.384 Y65.982 E50.27899
G1 F1604.3 X73.493 Y65.98 E51.68179
G0 F9000 X74.016 Y66.12
;MESH:NONMESH
G0 F300 X74.016 Y66.12 Z0.8
G0 F9000 X73.587 Y66.243
;TIME_ELAPSED:71.040513
;LAYER:3
M106 S255
;TYPE:WALL-INNER
;MESH:Pino Trava Porta Renault Kwid.3mf
G1 F1500 X73.639 Y65.99 E51.69039
G1 X73.65 Y65.822 E51.69599
G1 X73.641 Y65.607 E51.70314
G1 X73.585 Y65.345 E51.71205
G1 X28.437 Y65.344 E53.21368
G1 X28.437 Y66.244 E53.24362
G1 X73.587 Y66.243 E54.74531
G0 F9000 X73.837 Y66.641
G1 F1500 X73.965 Y66.431 E54.75349
G1 X74.037 Y66.039 E54.76675
G1 X74.049 Y65.847 E54.77315
G1 X74.038 Y65.556 E54.78283
G1 X73.959 Y65.149 E54.79662
G1 X73.838 Y64.948 E54.80442
G1 X28.037 Y64.944 E56.32777
G1 X28.037 Y66.644 E56.38431
G1 X73.837 Y66.641 E57.90763
G0 F9000 X74.14 Y66.911
G1 F1500 X74.296 Y66.656 E57.91757
G1 X74.381 Y66.387 E57.92695
G1 X74.435 Y66.087 E57.93709
G1 X74.448 Y65.873 E57.94422
G1 X74.454 Y65.793 E57.94689
G1 X74.436 Y65.505 E57.95649
G1 X74.375 Y65.189 E57.96719
G1 X74.293 Y64.926 E57.97636
G1 X74.141 Y64.677 E57.98606
G1 X73.943 Y64.544 E57.99399
G1 X27.637 Y64.544 E59.53414
G1 X27.637 Y67.044 E59.61729
G1 X73.943 Y67.044 E61.15743
G1 X74.14 Y66.911 E61.16534
G0 F9000 X74.099 Y67.408
G1 F1500 X74.286 Y67.315 E61.17228
G1 X74.449 Y67.173 E61.17947
G1 X74.663 Y66.824 E61.19309
G1 X74.77 Y66.483 E61.20497
G1 X74.833 Y66.136 E61.2167
G1 X74.848 Y65.898 E61.22464
G1 X74.855 Y65.793 E61.22814
G1 X74.833 Y65.454 E61.23944
G1 X74.763 Y65.092 E61.2517
G1 X74.66 Y64.76 E61.26326
G1 X74.45 Y64.415 E61.27669
G1 X74.287 Y64.274 E61.28386
G1 X74.098 Y64.18 E61.29088
G1 X73.885 Y64.144 E61.29807
G1 X27.237 Y64.144 E62.84959
G1 X27.237 Y67.444 E62.95934
G1 X73.885 Y67.444 E64.51086
G1 X74.099 Y67.408 E64.51808
G0 F9000 X74.223 Y67.793
;TYPE:WALL-OUTER
G1 F1500 X74.51 Y67.65 E64.52875
G1 X74.758 Y67.434 E64.53968
G1 X75.03 Y66.991 E64.55697
G1 X75.16 Y66.579 E64.57134
G1 X75.231 Y66.184 E64.58469
G1 X75.247 Y65.924 E64.59336
G1 X75.256 Y65.793 E64.59772
G1 X75.231 Y65.403 E64.61072
G1 X75.152 Y64.995 E64.62454
G1 X75.028 Y64.594 E64.6385
G1 X74.759 Y64.153 E64.65569
G1 X74.511 Y63.938 E64.6666
G1 X74.223 Y63.795 E64.6773
G1 X73.918 Y63.744 E64.68758
G1 X26.837 Y63.744 E66.2535
G1 X26.837 Y67.844 E66.38987
G1 X73.918 Y67.844 E67.95579
G1 X74.223 Y67.793 E67.96607
G0 F9000 X74.006 Y67.123
G0 X73.45 Y65.514
G0 X73.201 Y65.445
G0 X73.2 Y65.794
;TYPE:SKIN
G1 F1038.1 X28.887 Y65.794 E70.0958
G0 F9000 X28.888 Y65.145
G1 F2400 E65.0958
;MESH:NONMESH
G0 F300 X28.888 Y65.145 Z1
G0 F9000 X28.609 Y65.516
G0 X28.609 Y66.072
G0 X74.003 Y66.773
;TIME_ELAPSED:94.967472
;LAYER:4
;TYPE:WALL-INNER
;MESH:Pino Trava Porta Renault Kwid.3mf
G1 F2400 E70.0958
G1 F1500 X74.131 Y66.479 E70.10646
G1 X74.186 Y66.063 E70.12042
G1 X74.196 Y65.842 E70.12778
G1 X74.187 Y65.525 E70.13832
G1 X74.13 Y65.109 E70.15229
G1 X74.003 Y64.816 E70.16291
G1 X73.901 Y64.68 E70.16857
G1 X28.037 Y64.679 E71.69401
