;FLAVOR:Marlin
;TIME:2708
;Filament used: 0.828556m
;Layer height: 0.2
;MINX:36.292
;MINY:50.815
;MINZ:0.2
;MAXX:66.259
;MAXY:80.773
;MAXZ:49.4
;Generated with Cura_SteamEngine 5.2.1
M140 S60
M105
M190 S60
M104 S205
M105
M109 S205
M82 ;absolute extrusion mode
M201 X500.00 Y500.00 Z100.00 E5000.00 ;Setup machine max acceleration
M203 X500.00 Y500.00 Z10.00 E50.00 ;Setup machine max feedrate
M204 P500.00 R1000.00 T500.00 ;Setup Print/Retract/Travel acceleration
M205 X8.00 Y8.00 Z0.40 E5.00 ;Setup Jerk
M220 S100 ;Reset Feedrate
M221 S100 ;Reset Flowrate

G28 ;Home
G29 ;Auto bed Level

G92 E0 ;Reset Extruder
G1 Z2.0 F3000 ;Move Z Axis up
G1 X10.1 Y20 Z0.28 F5000.0 ;Move to start position
G1 X10.1 Y200.0 Z0.28 F1500.0 E15 ;Draw the first line
G1 X10.4 Y200.0 Z0.28 F5000.0 ;Move to side a little
G1 X10.4 Y20 Z0.28 F1500.0 E30 ;Draw the second line
G92 E0 ;Reset Extruder
G1 Z2.0 F3000 ;Move Z Axis up

G92 E0
G92 E0
G1 F2400 E-5
;LAYER_COUNT:247
;LAYER:0
M107
G0 F6000 X42.038 Y54.015 Z0.2
;TYPE:SKIRT
G1 F2400 E0
G1 F1800 X42.469 Y53.689 E0.01797
G1 X43.622 Y52.926 E0.06396
G1 X44.029 Y52.692 E0.07957
G1 X45.258 Y52.084 E0.12518
G1 X45.754 Y51.876 E0.14307
G1 X47.077 Y51.418 E0.18963
G1 X47.511 Y51.298 E0.20461
G1 X48.854 Y51.015 E0.25026
G1 X49.368 Y50.94 E0.26754
G1 X50.732 Y50.827 E0.31306
G1 X51.32 Y50.815 E0.33262
G1 X52.257 Y50.836 E0.36379
G1 X52.851 Y50.891 E0.38363
G1 X53.227 Y50.936 E0.39623
G1 X54.481 Y51.16 E0.4386
G1 X55.024 Y51.29 E0.45717
G1 X56.309 Y51.682 E0.50185
G1 X56.869 Y51.891 E0.52173
G1 X57.733 Y52.256 E0.55293
G1 X58.449 Y52.628 E0.57976
G1 X58.777 Y52.814 E0.59231
G1 X59.67 Y53.379 E0.62745
G1 X60.153 Y53.718 E0.64708
G1 X60.897 Y54.289 E0.67827
G1 X61.363 Y54.702 E0.69898
G1 X61.657 Y54.978 E0.71239
G1 X62.463 Y55.819 E0.75114
G1 X62.786 Y56.194 E0.7676
G1 X63.622 Y57.3 E0.81371
G1 X63.92 Y57.75 E0.83166
G1 X64.612 Y58.952 E0.87779
G1 X64.813 Y59.359 E0.89289
G1 X65.339 Y60.614 E0.93815
G1 X65.512 Y61.111 E0.95565
G1 X65.882 Y62.437 E1.00144
G1 X65.991 Y62.949 E1.01885
G1 X66.147 Y63.873 E1.05002
G1 X66.196 Y64.349 E1.06594
G1 X66.234 Y64.817 E1.08155
G1 X66.259 Y66.196 E1.12743
G1 X66.236 Y66.713 E1.14464
G1 X66.094 Y68.053 E1.18946
G1 X65.992 Y68.658 E1.20986
G1 X65.797 Y69.575 E1.24104
G1 X65.564 Y70.358 E1.26822
G1 X65.416 Y70.795 E1.28356
G1 X64.958 Y71.933 E1.32436
G1 X64.787 Y72.298 E1.33777
G1 X64.2 Y73.387 E1.37891
G1 X63.928 Y73.83 E1.3962
G1 X63.182 Y74.898 E1.43953
G1 X62.887 Y75.271 E1.45535
G1 X61.952 Y76.31 E1.50184
G1 X61.582 Y76.672 E1.51906
G1 X60.526 Y77.581 E1.5654
G1 X60.107 Y77.898 E1.58288
G1 X58.949 Y78.665 E1.62907
G1 X58.465 Y78.943 E1.64764
G1 X57.632 Y79.375 E1.67885
G1 X57.04 Y79.63 E1.70029
G1 X56.644 Y79.787 E1.71445
G1 X55.545 Y80.157 E1.75302
G1 X55.104 Y80.28 E1.76825
G1 X53.761 Y80.565 E1.81391
G1 X53.221 Y80.645 E1.83207
G1 X52.288 Y80.743 E1.86327
G1 X51.818 Y80.762 E1.87892
G1 X51.24 Y80.773 E1.89815
G1 X50.303 Y80.751 E1.92932
G1 X49.747 Y80.7 E1.94789
G1 X49.364 Y80.655 E1.96072
G1 X48.067 Y80.423 E2.00454
G1 X47.545 Y80.297 E2.0224
G1 X46.279 Y79.909 E2.06644
G1 X45.829 Y79.741 E2.08242
G1 X44.549 Y79.168 E2.12906
G1 X44.063 Y78.912 E2.14733
G1 X42.878 Y78.189 E2.1935
G1 X42.427 Y77.873 E2.21182
G1 X41.682 Y77.302 E2.24303
G1 X41.195 Y76.87 E2.26469
G1 X40.883 Y76.576 E2.27895
G1 X40.041 Y75.688 E2.31965
G1 X39.665 Y75.245 E2.33897
G1 X39.089 Y74.505 E2.37016
G1 X38.766 Y74.026 E2.38938
G1 X38.543 Y73.675 E2.40321
G1 X37.934 Y72.584 E2.44477
G1 X37.675 Y72.051 E2.46448
G1 X37.302 Y71.19 E2.49569
G1 X37.1 Y70.621 E2.51577
G1 X36.989 Y70.277 E2.52779
G1 X36.692 Y69.156 E2.56636
G1 X36.575 Y68.598 E2.58532
G1 X36.379 Y67.256 E2.63043
G1 X36.33 Y66.669 E2.65002
G1 X36.292 Y65.732 E2.68121
G1 X36.327 Y64.879 E2.70961
G1 X36.357 Y64.503 E2.72215
G1 X36.483 Y63.501 E2.75574
G1 X36.58 Y62.941 E2.77465
G1 X36.78 Y62.024 E2.80586
G1 X36.925 Y61.521 E2.82327
G1 X37.045 Y61.139 E2.83659
G1 X37.509 Y59.92 E2.87997
G1 X37.74 Y59.407 E2.89869
G1 X38.381 Y58.191 E2.94441
G1 X38.671 Y57.716 E2.96292
G1 X39.194 Y56.937 E2.99412
G1 X39.565 Y56.46 E3.01422
G1 X39.82 Y56.15 E3.02757
G1 X40.636 Y55.262 E3.06768
G1 X40.995 Y54.912 E3.08436
G1 X42.038 Y54.015 E3.13011
G0 F6000 X42.28 Y54.334
G1 F1800 X42.711 Y54.008 E3.14809
G1 X43.822 Y53.273 E3.1924
G1 X44.229 Y53.039 E3.20801
G1 X45.413 Y52.453 E3.25195
G1 X45.909 Y52.245 E3.26984
G1 X47.183 Y51.803 E3.31469
G1 X47.617 Y51.683 E3.32967
G1 X48.912 Y51.411 E3.37368
G1 X49.426 Y51.336 E3.39095
G1 X50.74 Y51.227 E3.43481
G1 X51.328 Y51.215 E3.45437
G1 X52.248 Y51.236 E3.48498
G1 X52.804 Y51.288 E3.50355
G1 X53.18 Y51.333 E3.51614
G1 X54.388 Y51.549 E3.55696
G1 X54.931 Y51.679 E3.57553
G1 X56.169 Y52.057 E3.61858
G1 X56.729 Y52.266 E3.63846
G1 X57.577 Y52.625 E3.66909
G1 X58.252 Y52.976 E3.6944
G1 X58.58 Y53.162 E3.70694
G1 X59.441 Y53.707 E3.74083
G1 X59.924 Y54.046 E3.76046
G1 X60.653 Y54.607 E3.79105
G1 X61.089 Y54.994 E3.81044
G1 X61.383 Y55.27 E3.82385
G1 X62.159 Y56.08 E3.86116
G1 X62.482 Y56.455 E3.87762
G1 X63.289 Y57.52 E3.92207
G1 X63.587 Y57.97 E3.94002
G1 X64.253 Y59.129 E3.98448
G1 X64.454 Y59.536 E3.99958
G1 X64.961 Y60.745 E4.04318
G1 X65.134 Y61.242 E4.06068
G1 X65.491 Y62.52 E4.10482
G1 X65.6 Y63.032 E4.12223
G1 X65.797 Y64.381 E4.16757
G1 X65.835 Y64.849 E4.18319
G1 X65.86 Y66.178 E4.2274
G1 X65.837 Y66.695 E4.24461
G1 X65.699 Y67.986 E4.28779
G1 X65.597 Y68.591 E4.3082
G1 X65.405 Y69.492 E4.33884
G1 X65.185 Y70.229 E4.36442
G1 X65.037 Y70.666 E4.37977
G1 X64.596 Y71.763 E4.41909
G1 X64.425 Y72.128 E4.4325
G1 X63.859 Y73.177 E4.47214
G1 X63.587 Y73.62 E4.48943
G1 X62.868 Y74.649 E4.53118
G1 X62.573 Y75.022 E4.547
G1 X61.672 Y76.024 E4.59182
G1 X61.302 Y76.386 E4.60904
G1 X60.284 Y77.262 E4.65371
G1 X59.865 Y77.579 E4.67118
G1 X58.75 Y78.318 E4.71567
G1 X58.266 Y78.596 E4.73424
G1 X57.448 Y79.019 E4.76487
G1 X56.893 Y79.258 E4.78496
G1 X56.497 Y79.415 E4.79913
G1 X55.438 Y79.771 E4.83629
G1 X54.997 Y79.894 E4.85152
G1 X53.702 Y80.17 E4.89556
G1 X53.162 Y80.25 E4.91371
G1 X51.811 Y80.362 E4.9588
G1 X51.233 Y80.373 E4.97803
G1 X50.312 Y80.351 E5.00867
G1 X49.794 Y80.303 E5.02598
G1 X49.411 Y80.258 E5.0388
G1 X48.161 Y80.034 E5.08104
G1 X47.639 Y79.908 E5.0989
G1 X46.419 Y79.535 E5.14133
G1 X45.969 Y79.367 E5.15731
G1 X44.736 Y78.814 E5.20225
G1 X44.25 Y78.558 E5.22052
G1 X43.107 Y77.861 E5.26505
G1 X42.656 Y77.545 E5.28337
G1 X41.926 Y76.985 E5.31397
G1 X41.47 Y76.579 E5.33427
G1 X41.158 Y76.285 E5.34853
G1 X40.345 Y75.429 E5.3878
G1 X39.969 Y74.986 E5.40712
G1 X39.405 Y74.259 E5.43773
G1 X39.104 Y73.811 E5.45568
G1 X38.881 Y73.46 E5.46951
G1 X38.294 Y72.409 E5.50955
G1 X38.035 Y71.876 E5.52926
G1 X37.669 Y71.031 E5.55989
G1 X37.481 Y70.498 E5.57868
G1 X37.37 Y70.154 E5.59071
G1 X37.084 Y69.074 E5.62787
G1 X36.967 Y68.516 E5.64683
G1 X36.778 Y67.223 E5.69029
G1 X36.729 Y66.636 E5.70988
G1 X36.692 Y65.716 E5.74051
G1 X36.726 Y64.911 E5.7673
G1 X36.756 Y64.535 E5.77985
G1 X36.878 Y63.569 E5.81223
G1 X36.975 Y63.009 E5.83114
G1 X37.171 Y62.109 E5.86177
G1 X37.306 Y61.641 E5.87797
G1 X37.426 Y61.259 E5.89129
G1 X37.874 Y60.084 E5.93312
G1 X38.105 Y59.571 E5.95183
G1 X38.723 Y58.399 E5.9959
G1 X39.013 Y57.924 E6.01441
G1 X39.526 Y57.16 E6.04501
G1 X39.874 Y56.714 E6.06383
G1 X40.129 Y56.404 E6.07718
G1 X40.915 Y55.548 E6.11583
G1 X41.274 Y55.198 E6.13251
G1 X42.28 Y54.334 E6.17662
G0 F6000 X42.521 Y54.653
G1 F1800 X42.952 Y54.327 E6.19459
G1 X44.021 Y53.619 E6.23724
G1 X44.428 Y53.385 E6.25285
G1 X45.567 Y52.822 E6.29511
G1 X46.063 Y52.614 E6.313
G1 X47.29 Y52.189 E6.35619
G1 X47.724 Y52.069 E6.37116
G1 X48.969 Y51.807 E6.41348
G1 X49.483 Y51.732 E6.43076
G1 X50.748 Y51.627 E6.47297
G1 X51.336 Y51.615 E6.49254
G1 X52.239 Y51.637 E6.52258
G1 X52.756 Y51.685 E6.53985
G1 X53.132 Y51.73 E6.55244
G1 X54.295 Y51.938 E6.59174
G1 X54.838 Y52.068 E6.61031
G1 X56.029 Y52.432 E6.65173
G1 X56.589 Y52.641 E6.67161
G1 X57.421 Y52.994 E6.70167
G1 X58.054 Y53.324 E6.72541
G1 X58.382 Y53.51 E6.73796
G1 X59.211 Y54.034 E6.77057
G1 X59.694 Y54.373 E6.7902
G1 X60.409 Y54.924 E6.82022
G1 X60.815 Y55.285 E6.83829
G1 X61.109 Y55.561 E6.85171
G1 X61.856 Y56.341 E6.88763
G1 X62.179 Y56.716 E6.90409
G1 X62.955 Y57.741 E6.94685
G1 X63.253 Y58.191 E6.9648
G1 X63.895 Y59.306 E7.00759
G1 X64.096 Y59.713 E7.02269
G1 X64.583 Y60.877 E7.06466
G1 X64.756 Y61.374 E7.08216
G1 X65.099 Y62.603 E7.1246
G1 X65.208 Y63.115 E7.14201
G1 X65.399 Y64.414 E7.18568
G1 X65.437 Y64.882 E7.2013
G1 X65.46 Y66.16 E7.24381
G1 X65.437 Y66.677 E7.26102
G1 X65.305 Y67.92 E7.3026
G1 X65.203 Y68.525 E7.323
G1 X65.014 Y69.408 E7.35304
G1 X64.806 Y70.101 E7.3771
G1 X64.658 Y70.538 E7.39245
G1 X64.234 Y71.593 E7.43026
G1 X64.063 Y71.958 E7.44367
G1 X63.518 Y72.968 E7.48184
G1 X63.246 Y73.411 E7.49913
G1 X62.554 Y74.401 E7.53931
G1 X62.259 Y74.774 E7.55512
G1 X61.392 Y75.738 E7.59825
G1 X61.022 Y76.1 E7.61546
G1 X60.043 Y76.943 E7.65843
G1 X59.624 Y77.26 E7.67591
G1 X58.55 Y77.971 E7.71875
G1 X58.066 Y78.249 E7.73731
G1 X57.264 Y78.664 E7.76735
G1 X56.745 Y78.886 E7.78612
G1 X56.349 Y79.043 E7.80029
G1 X55.33 Y79.386 E7.83605
G1 X54.889 Y79.509 E7.85128
G1 X53.644 Y79.774 E7.89361
G1 X53.104 Y79.854 E7.91177
G1 X51.803 Y79.962 E7.95519
G1 X51.225 Y79.973 E7.97442
G1 X50.322 Y79.95 E8.00446
G1 X49.841 Y79.905 E8.02053
G1 X49.458 Y79.86 E8.03336
G1 X48.255 Y79.645 E8.074
G1 X47.733 Y79.519 E8.09186
G1 X46.559 Y79.16 E8.1327
G1 X46.109 Y78.992 E8.14867
G1 X44.922 Y78.461 E8.19192
G1 X44.436 Y78.205 E8.21019
G1 X43.337 Y77.534 E8.25302
G1 X42.886 Y77.218 E8.27133
G1 X42.17 Y76.667 E8.30138
G1 X41.744 Y76.287 E8.32037
G1 X41.432 Y75.993 E8.33463
G1 X40.65 Y75.17 E8.37239
G1 X40.274 Y74.727 E8.39171
G1 X39.721 Y74.014 E8.42173
G1 X39.442 Y73.597 E8.43841
G1 X39.219 Y73.246 E8.45224
G1 X38.654 Y72.234 E8.49079
G1 X38.395 Y71.701 E8.5105
G1 X38.036 Y70.872 E8.54055
G1 X37.862 Y70.375 E8.55807
G1 X37.751 Y70.031 E8.57009
G1 X37.475 Y68.992 E8.60584
G1 X37.358 Y68.434 E8.62481
G1 X37.176 Y67.189 E8.66666
G1 X37.127 Y66.602 E8.68625
G1 X37.092 Y65.7 E8.71627
G1 X37.124 Y64.943 E8.74147
G1 X37.154 Y64.567 E8.75402
G1 X37.272 Y63.637 E8.7852
G1 X37.369 Y63.077 E8.8041
G1 X37.562 Y62.195 E8.83413
G1 X37.808 Y61.379 E8.86248
G1 X38.238 Y60.248 E8.90272
G1 X38.469 Y59.735 E8.92143
G1 X39.064 Y58.608 E8.96382
G1 X39.354 Y58.133 E8.98233
G1 X39.859 Y57.384 E9.01237
G1 X40.183 Y56.968 E9.02991
G1 X40.438 Y56.658 E9.04326
G1 X41.195 Y55.835 E9.08045
G1 X41.554 Y55.485 E9.09713
G1 X42.521 Y54.653 E9.13956
G1 F2400 E4.13956
G0 F6000 X51.185 Y65.63
G1 F2400 E9.13956
G1 F1800 X51.281 Y65.6 E9.1429
G1 X51.388 Y65.629 E9.14659
G1 X51.47 Y65.728 E9.15087
G1 X51.438 Y65.915 E9.15718
G1 X51.256 Y65.985 E9.16366
G1 X51.137 Y65.915 E9.16826
G1 X51.097 Y65.826 E9.1715
G1 X51.108 Y65.724 E9.17491
G1 X51.185 Y65.63 E9.17895
G0 F6000 X50.911 Y65.334
G1 F1800 X51.186 Y65.207 E9.18903
G1 X51.495 Y65.237 E9.19935
G1 X51.669 Y65.338 E9.20605
G1 X51.804 Y65.497 E9.21298
G1 X51.873 Y65.689 E9.21977
G1 X51.873 Y65.895 E9.22662
G1 X51.801 Y66.094 E9.23366
G1 X51.67 Y66.249 E9.24041
G1 X51.49 Y66.354 E9.24734
G1 X51.289 Y66.389 E9.25413
G1 X50.995 Y66.311 E9.26424
G1 X50.77 Y66.088 E9.27478
G1 X50.692 Y65.795 E9.28486
G1 X50.73 Y65.59 E9.2918
G1 X50.911 Y65.334 E9.30223
G0 F6000 X50.652 Y65.027
G1 F1800 X50.944 Y64.859 E9.31343
G1 X51.118 Y64.811 E9.31943
G1 X51.457 Y64.812 E9.33071
G1 X51.782 Y64.929 E9.3422
G1 X52.051 Y65.154 E9.35386
G1 X52.224 Y65.451 E9.36529
G1 X52.269 Y65.619 E9.37108
G1 X52.269 Y65.965 E9.38259
G1 X52.149 Y66.295 E9.39427
G1 X51.932 Y66.553 E9.40548
G1 X51.629 Y66.731 E9.41717
G1 X51.461 Y66.776 E9.42295
G1 X51.116 Y66.776 E9.43443
G1 X50.796 Y66.66 E9.44575
G1 X50.644 Y66.554 E9.45191
G1 X50.421 Y66.286 E9.46351
G1 X50.306 Y65.966 E9.47482
G1 X50.291 Y65.795 E9.48053
G1 X50.351 Y65.455 E9.49201
G1 X50.523 Y65.157 E9.50345
G1 X50.652 Y65.027 E9.50954
G1 F2400 E4.50954
;MESH:Pino Trava Porta Renault Kwid.3mf
G0 F6000 X51.524 Y67.106
G0 X51.706 Y68.159
G0 X52.703 Y68.324
G1 F2400 E9.50954
G0 F6000 X52.578 Y68.055
;TYPE:WALL-INNER
G1 F1200 X52.191 Y68.233 E9.52371
G1 X51.751 Y68.357 E9.53892
G1 X51.288 Y68.398 E9.55438
G1 X50.827 Y68.357 E9.56977
G1 X50.384 Y68.233 E9.58507
G1 X49.998 Y68.054 E9.59922
G1 X49.626 Y67.794 E9.61432
G1 X49.295 Y67.468 E9.62977
G1 X49.027 Y67.087 E9.64526
G1 X48.835 Y66.659 E9.66086
G1 X48.724 Y66.248 E9.67502
G1 X48.683 Y65.797 E9.69009
G1 X48.723 Y65.347 E9.70511
G1 X48.835 Y64.929 E9.71951
G1 X49.015 Y64.526 E9.73419
G1 X49.292 Y64.129 E9.75029
G1 X49.622 Y63.795 E9.7659
G1 X49.996 Y63.535 E9.78105
G1 X50.38 Y63.356 E9.79514
G1 X50.828 Y63.23 E9.81062
G1 X51.284 Y63.191 E9.82585
G1 X51.711 Y63.228 E9.8401
G1 X52.188 Y63.352 E9.85649
G1 X52.573 Y63.532 E9.87063
G1 X52.924 Y63.773 E9.88479
G1 X53.285 Y64.127 E9.90161
G1 X53.529 Y64.472 E9.91566
G1 X53.729 Y64.89 E9.93107
G1 X53.849 Y65.331 E9.94627
G1 X53.891 Y65.791 E9.96164
G1 X53.85 Y66.249 E9.97693
G1 X53.74 Y66.661 E9.99111
G1 X53.549 Y67.086 E10.00661
G1 X53.284 Y67.463 E10.02194
G1 X52.985 Y67.765 E10.03607
G1 X52.578 Y68.055 E10.0527
G0 F6000 X52.71 Y67.472
;TYPE:WALL-OUTER
G1 F1200 X52.385 Y67.703 E10.06596
G1 X52.045 Y67.86 E10.07841
G1 X51.68 Y67.96 E10.091
G1 X51.27 Y67.994 E10.10468
G1 X50.913 Y67.963 E10.1166
G1 X50.53 Y67.86 E10.12979
G1 X50.191 Y67.704 E10.14221
G1 X49.887 Y67.49 E10.15457
G1 X49.601 Y67.207 E10.16795
G1 X49.383 Y66.9 E10.18048
G1 X49.214 Y66.529 E10.19404
G1 X49.121 Y66.178 E10.20611
G1 X49.087 Y65.778 E10.21946
G1 X49.124 Y65.398 E10.23216
G1 X49.216 Y65.053 E10.24404
G1 X49.372 Y64.708 E10.25663
G1 X49.599 Y64.385 E10.26976
G1 X49.888 Y64.097 E10.28333
G1 X50.168 Y63.898 E10.29476
G1 X50.526 Y63.729 E10.30793
G1 X50.897 Y63.627 E10.32072
G1 X51.266 Y63.594 E10.33304
G1 X51.66 Y63.625 E10.34619
G1 X52.042 Y63.726 E10.35933
G1 X52.379 Y63.883 E10.3717
G1 X52.688 Y64.097 E10.3842
G1 X52.977 Y64.384 E10.39775
G1 X53.19 Y64.686 E10.41004
G1 X53.359 Y65.053 E10.42348
G1 X53.455 Y65.405 E10.43561
G1 X53.487 Y65.808 E10.44906
G1 X53.455 Y66.176 E10.46134
G1 X53.358 Y66.537 E10.47378
G1 X53.192 Y66.897 E10.48696
G1 X52.976 Y67.206 E10.4995
G1 X52.71 Y67.472 E10.51201
G0 F6000 X53.202 Y67.969
G0 X52.609 Y68.596
G0 X52.731 Y68.87
;TYPE:WALL-INNER
G1 F1200 X53.107 Y68.663 E10.52629
G1 X53.447 Y68.416 E10.54027
G1 X53.765 Y68.118 E10.55476
G1 X54.035 Y67.793 E10.56881
G1 X54.262 Y67.433 E10.58297
G1 X54.446 Y67.053 E10.59701
G1 X54.582 Y66.633 E10.61169
G1 X54.657 Y66.225 E10.62549
G1 X54.685 Y65.796 E10.63979
G1 X54.66 Y65.396 E10.65312
G1 X54.583 Y64.964 E10.66772
G1 X54.447 Y64.538 E10.68259
G1 X54.267 Y64.162 E10.69645
G1 X54.039 Y63.8 E10.71068
G1 X53.767 Y63.473 E10.72483
G1 X53.454 Y63.177 E10.73916
G1 X53.113 Y62.929 E10.75318
G1 X52.738 Y62.722 E10.76743
G1 X52.328 Y62.562 E10.78207
G1 X51.925 Y62.457 E10.79592
G1 X51.504 Y62.403 E10.81004
G1 X51.075 Y62.402 E10.8243
G1 X50.654 Y62.456 E10.83842
G1 X50.255 Y62.559 E10.85213
G1 X49.844 Y62.718 E10.86678
G1 X49.468 Y62.924 E10.88104
G1 X49.128 Y63.172 E10.89504
G1 X48.81 Y63.471 E10.90956
G1 X48.539 Y63.795 E10.92361
G1 X48.313 Y64.153 E10.93769
G1 X48.129 Y64.536 E10.95182
G1 X47.993 Y64.955 E10.96647
G1 X47.918 Y65.364 E10.9803
G1 X47.889 Y65.792 E10.99457
G1 X47.917 Y66.214 E11.00864
G1 X47.992 Y66.625 E11.02253
G1 X48.128 Y67.051 E11.03741
G1 X48.308 Y67.426 E11.05124
G1 X48.534 Y67.786 E11.06538
G1 X48.808 Y68.115 E11.07962
G1 X49.121 Y68.411 E11.09395
G1 X49.461 Y68.659 E11.10795
G1 X49.837 Y68.866 E11.12222
G1 X50.246 Y69.027 E11.13684
